static/assets/svg/human/humanClothes/female_shirt8_stickers/female_shirt8_sticker10.svg

<svg class="shirtOverlay" width="86" height="380" viewBox="202.715 584.407 86.593 380.048" preserveAspectRatio="xMidYMax" xmlns="http://www.w3.org/2000/svg" xmlns:xlink="http://www.w3.org/1999/xlink"><defs><pattern id="a" width="20" height="20" patternUnits="userSpaceOnUse" viewBox="0 0 100 100"><path d="M0 0h50v100H0z"/><path fill="#27ef2d" d="M49.518-1.125h54.341V100H49.518z"/><path transform="rotate(-25.71 50 12.219)" fill="#27ef2d" d="M22.829-15.836H77.17v56.109H22.829z"/></pattern><pattern id="b" patternTransform="translate(365.63 772.985)" xlink:href="#a"/><pattern id="c" patternTransform="translate(358.002 758.124)" xlink:href="#a"/><pattern id="d" patternTransform="translate(360.58 236.161)" xlink:href="#a"/><pattern id="e" patternTransform="translate(454.44 192.42)" xlink:href="#a"/><pattern id="f" patternTransform="translate(360.597 243.997)" xlink:href="#a"/><pattern id="g" patternTransform="translate(332.94 210.098)" xlink:href="#a"/><pattern id="h" patternTransform="translate(414.27 144.91)" xlink:href="#a"/><pattern id="i" patternTransform="translate(332.98 213.482)" xlink:href="#a"/><pattern id="j" patternTransform="translate(301.934 184.512)" xlink:href="#a"/><pattern id="k" patternTransform="translate(372.18 104.28)" xlink:href="#a"/><pattern id="l" patternTransform="translate(302.002 186.745)" xlink:href="#a"/><pattern id="m" patternTransform="translate(112.46 236.063)" xlink:href="#a"/><pattern id="n" patternTransform="translate(114.679 254.04)" xlink:href="#a"/><pattern id="o" patternTransform="translate(24.265 192.42)" xlink:href="#a"/><pattern id="p" patternTransform="translate(143.778 210.1)" xlink:href="#a"/><pattern id="q" patternTransform="translate(145.007 230.153)" xlink:href="#a"/><pattern id="r" patternTransform="translate(60.369 156.86)" xlink:href="#a"/><pattern id="s" patternTransform="translate(174.784 184.512)" xlink:href="#a"/><pattern id="t" patternTransform="translate(175.284 206.703)" xlink:href="#a"/><pattern id="u" patternTransform="translate(101.1 116.23)" xlink:href="#a"/><pattern id="v" patternTransform="translate(234.814 732.634)" xlink:href="#a"/></defs><g fill-rule="evenodd"><path d="M356.574 780.117s2.341 6.943 4.998 12.784c2.654 5.84 7.34 8.68 7.965 8.68.624 0 1.25-3.313 1.094-5.208-.157-1.893-4.53-5.681 2.967.316 7.497 5.998 12.808 8.524 12.338 6.471.781-5.05-7.965-15.625-2.341-13.732 5.622 1.895 15.149 6.314 9.214-.631-5.935-6.945-12.027-10.103-6.873-9.944 5.156.158 10.153 2.526 7.654-2.052-2.498-4.577-14.521-11.695-19.675-14.694-4.062 2.051-12.032 7.435-17.341 18.01z" transform="matrix(1.7696 .6587 -1.60725 .72524 839.295 -20.645)" fill="url(#b)"/><path d="M346.451 758.469s19.618 24.981 21.486 27.471c1.865 2.489 2.333 2.177 2.799-1.244.466-3.423-2.799-6.845 2.8-3.112 5.6 3.734 10.422 8.401 7.622 2.644-2.799-5.755-3.577-7.155.31-5.133 3.889 2.022 7.623 3.577 2.957-2.022-3.579-4.045 3.578-5.133 4.821-5.6 2.956.467-15.85-16.292-24.964-22.628-7.928 1.116-18.062-4.404-17.831 9.624z" transform="matrix(1.7696 .6587 -1.60725 .72524 827.947 -23.47)" fill-opacity=".696" fill="url(#c)"/></g><g transform="matrix(.16972 0 0 .16972 203.673 649.938)"><path d="M458.98 152.17c-78.08-28.77-80.83 132.19-215.79 161.41-24.94 5.4 69.96 63.14 171.55 2.47 98.8-59 113.92-132.89 44.24-163.88z" stroke="#010101" stroke-width="4" fill="url(#d)"/><circle cy="202.42" cx="464.44" r="21.463" stroke="#000" stroke-width="4" fill="url(#e)"/><path d="M481.13 165.67c-.52-.43-1.06-.84-1.59-1.27 6.54 33.25-16.53 78.13-70.86 121.88-72.22 58.15-150.5 43.7-169.47 30.49-1.1 12.94 84.52 53.66 175.54-.7 86.45-51.62 108.81-114.68 66.38-150.4z" fill-opacity=".314" fill="url(#f)"/></g><g transform="matrix(.16972 0 0 .16972 203.673 649.938)"><path d="M398.74 106.69c-82.87-7.575-43.86 148.61-166.66 211.76-22.7 11.67 83.92 42.88 166.35-42.01 80.15-82.56 75.64-157.85.31-169.75z" stroke="#010101" stroke-width="4" fill="url(#g)"/><circle cy="154.91" cx="424.27" r="21.463" stroke="#000" stroke-width="4" fill="url(#h)"/><path d="M423.63 114c-.61-.28-1.25-.54-1.87-.81 14.93 30.42 4.26 79.74-36.9 136.06-54.71 74.86-134.06 81.16-155.8 73.31 2.29 12.79 95.53 29.96 169.38-46.1 70.14-72.24 75.42-138.94 25.19-162.46z" fill-opacity=".314" fill="url(#i)"/></g><g transform="matrix(.16972 0 0 .16972 203.673 649.938)"><path d="M355.4 75.532c-83.22-.322-30.75 151.87-147.58 225.48-21.59 13.61 87.34 35.41 162.06-56.34 72.66-89.23 61.6-163.85-14.48-169.14z" stroke="#010101" stroke-width="4" fill="url(#j)"/><circle cy="114.28" cx="382.18" r="21.463" stroke="#000" stroke-width="4" fill="url(#k)"/><path d="M380.83 80.651c-.63-.229-1.29-.431-1.93-.648 17.52 29.007 11.19 79.067-24.9 138.76-47.98 79.35-126.48 92.54-148.82 86.62 3.39 12.53 97.77 21.51 164.71-60.7 63.58-78.08 63.03-144.98 10.94-164.03z" fill-opacity=".314" fill="url(#l)"/></g><g transform="matrix(.16972 0 0 .16972 203.673 649.938)"><path d="M55.013 138.76c81.897-14.77 56.647 144.22 184.49 196.42 23.62 9.66-79.87 50.05-169.38-27.34-87.049-75.26-89.111-150.66-15.107-169.08z" stroke="#010101" stroke-width="4" fill="url(#m)"/><path d="M6.427 222.81c8.568 26.08 29.64 55.57 63.711 85.03 89.512 77.38 193 37.01 169.38 27.36-10.11-4.13-19.29-8.93-27.61-14.25-30.41 9.02-96.02 9.63-155.53-41.82-22.057-19.08-38.665-38.16-49.953-56.32zm105.63-49.06c5.7 12.75 11.72 26.33 18.86 40.09-6.57-14.61-12.48-28.4-18.86-40.09z" fill-opacity=".314" fill="url(#n)"/><circle cy="202.42" cx="34.265" r="21.463" stroke="#000" stroke-width="4" fill="url(#o)"/></g><g transform="matrix(.16972 0 0 .16972 203.673 649.938)"><path d="M97.979 106.69c82.871-7.571 43.861 148.61 166.66 211.76 22.7 11.67-83.92 42.89-166.35-42-80.156-82.56-75.639-157.86-.311-169.76z" stroke="#010101" stroke-width="4" fill="url(#p)"/><path d="M42.252 186.19c6.263 26.73 24.684 57.94 56.058 90.25 82.43 84.9 189.05 53.7 166.35 42.03-9.71-4.99-18.44-10.58-26.26-16.6-31.08 6.33-96.5 1.22-151.29-55.22-20.314-20.93-35.195-41.38-44.858-60.46zm109.51-39.67c4.57 13.2 9.38 27.26 15.3 41.58-5.28-15.12-9.96-29.37-15.3-41.58z" fill-opacity=".314" fill="url(#q)"/><circle cy="166.86" cx="70.369" r="21.463" stroke="#000" stroke-width="4" fill="url(#r)"/></g><g transform="matrix(.16972 0 0 .16972 203.673 649.938)"><path d="M141.32 75.536c83.22-.323 30.75 151.86 147.57 225.48 21.6 13.6-87.34 35.4-162.05-56.35-72.658-89.23-61.596-163.84 14.48-169.13z" stroke="#010101" stroke-width="4" fill="url(#s)"/><path d="M78.879 149.88c3.91 27.16 19.54 59.87 47.981 94.79 74.71 91.76 183.64 69.97 162.05 56.36-9.23-5.82-17.44-12.14-24.71-18.82-31.52 3.6-96.24-7.2-145.9-68.2-18.417-22.61-31.458-44.29-39.421-64.13zm112.55-29.98c3.4 13.55 6.96 27.97 11.61 42.76-3.93-15.53-7.36-30.13-11.61-42.76z" fill-opacity=".314" fill="url(#t)"/><circle cy="126.23" cx="111.1" r="21.463" stroke="#000" stroke-width="4" fill="url(#u)"/></g><path d="M230.538 708.481c6.291 0 31.537-5.534 34.304 0 3.83 7.661-9.901 24.653-5.584 31.912 3.989 6.707 14.735 31.917 14.359 31.113-4.069-8.695-26.189-18.485-29.517-15.158-2.728 2.728-3.206 8.79-5.585 11.169-.361.362-5.186-4.388-5.584-4.787-1.016-1.015-8.078-2.703-9.574-.797-3.605 4.595-6.705 15.046-7.179 16.753-1.388 4.995 5.882-25.029 6.382-25.529 1.498-1.498 22.576-33.507 10.371-33.507" stroke="#000" fill="url(#v)"/></svg>

<svg class="shirtOverlay" width="86" height="380" viewBox="202.715 584.407 86.5933 380.048" preserveAspectRatio="xMidYMax" xmlns="http://www.w3.org/2000/svg" xmlns:xlink="http://www.w3.org/1999/xlink">
  <defs id="svgEditorDefs">
    <path id="svgEditorClosePathDefs" fill="black" style="stroke-width: 0px; stroke: none;" class="clothes"/>
    <pattern id="pattern-0" x="0" y="0" width="20" height="20" patternUnits="userSpaceOnUse" viewBox="0 0 100 100">
      <path d="M 0 0 L 50 0 L 50 100 L 0 100 Z" style="fill: black;"/>
      <rect x="49.518" y="-1.125" width="54.341" height="101.125" style="fill: rgb(39, 239, 45);"/>
      <rect x="22.829" y="-15.836" width="54.341" height="56.109" style="fill: rgb(39, 239, 45);" transform="matrix(0.901, -0.433819, 0.433819, 0.901, -0.350672, 22.900361)"/>
    </pattern>
    <pattern id="pattern-0-0" patternTransform="matrix(1, 0, 0, 1, 365.630798, 772.985168)" xlink:href="#pattern-0"/>
    <pattern id="pattern-0-1" patternTransform="matrix(1, 0, 0, 1, 358.002441, 758.123718)" xlink:href="#pattern-0"/>
    <pattern id="pattern-0-2" patternTransform="matrix(1, 0, 0, 0.999999, 360.579651, 236.16127)" xlink:href="#pattern-0"/>
    <pattern id="pattern-0-3" patternTransform="matrix(1, 0, 0, 1, 454.440002, 192.419998)" xlink:href="#pattern-0"/>
    <pattern id="pattern-0-4" patternTransform="matrix(1, 0, 0, 0.999999, 360.597107, 243.996841)" xlink:href="#pattern-0"/>
    <pattern id="pattern-0-5" patternTransform="matrix(1, 0, 0, 1, 332.939636, 210.097687)" xlink:href="#pattern-0"/>
    <pattern id="pattern-0-6" patternTransform="matrix(1, 0, 0, 1, 414.269989, 144.910004)" xlink:href="#pattern-0"/>
    <pattern id="pattern-0-7" patternTransform="matrix(1, 0, 0, 1, 332.979614, 213.481583)" xlink:href="#pattern-0"/>
    <pattern id="pattern-0-8" patternTransform="matrix(1, 0, 0, 1, 301.933655, 184.511932)" xlink:href="#pattern-0"/>
    <pattern id="pattern-0-9" patternTransform="matrix(1, 0, 0, 1, 372.179993, 104.279999)" xlink:href="#pattern-0"/>
    <pattern id="pattern-0-10" patternTransform="matrix(1, 0, 0, 1, 302.001953, 186.745422)" xlink:href="#pattern-0"/>
    <pattern id="pattern-0-11" patternTransform="matrix(1, 0, 0, 0.999999, 112.46035, 236.06282)" xlink:href="#pattern-0"/>
    <pattern id="pattern-0-12" patternTransform="matrix(1, 0, 0, 1, 114.67894, 254.040741)" xlink:href="#pattern-0"/>
    <pattern id="pattern-0-13" patternTransform="matrix(1, 0, 0, 1, 24.264999, 192.419998)" xlink:href="#pattern-0"/>
    <pattern id="pattern-0-14" patternTransform="matrix(1, 0, 0, 1, 143.778336, 210.100098)" xlink:href="#pattern-0"/>
    <pattern id="pattern-0-15" patternTransform="matrix(1, 0, 0, 1, 145.006653, 230.152893)" xlink:href="#pattern-0"/>
    <pattern id="pattern-0-16" patternTransform="matrix(1, 0, 0, 1, 60.369003, 156.860001)" xlink:href="#pattern-0"/>
    <pattern id="pattern-0-17" patternTransform="matrix(1, 0, 0, 1, 174.783539, 184.511993)" xlink:href="#pattern-0"/>
    <pattern id="pattern-0-18" patternTransform="matrix(1, 0, 0, 1, 175.284424, 206.703064)" xlink:href="#pattern-0"/>
    <pattern id="pattern-0-19" patternTransform="matrix(1, 0, 0, 1, 101.099998, 116.230003)" xlink:href="#pattern-0"/>
    <pattern id="pattern-0-20" patternTransform="matrix(1, 0, 0, 1, 234.814392, 732.633911)" xlink:href="#pattern-0"/>
  </defs>
  <g transform="matrix(2.390553, 0, 0, 0.979721, -652.408997, 27.52512)">
    <path id="path671" style="fill-rule: evenodd; stroke-width: 3.75; fill: url(#pattern-0-0);" d="M 356.574 780.117 C 356.574 780.117 358.915 787.06 361.572 792.901 C 364.226 798.741 368.912 801.581 369.537 801.581 C 370.161 801.581 370.787 798.268 370.631 796.373 C 370.474 794.48 366.101 790.692 373.598 796.689 C 381.095 802.687 386.406 805.213 385.936 803.16 C 386.717 798.11 377.971 787.535 383.595 789.428 C 389.217 791.323 398.744 795.742 392.809 788.797 C 386.874 781.852 380.782 778.694 385.936 778.853 C 391.092 779.011 396.089 781.379 393.59 776.801 C 391.092 772.224 379.069 765.106 373.915 762.107 C 369.853 764.158 361.883 769.542 356.574 780.117 Z" transform="matrix(0.740247, 0.672335, -0.672335, 0.740247, 623.999626, -49.16698)"/>
    <path id="path672" style="stroke-linejoin: round; fill-rule: evenodd; stroke-width: 12.5; fill-opacity: 0.6963; fill: url(#pattern-0-1);" d="M 346.451 758.469 C 346.451 758.469 366.069 783.45 367.937 785.94 C 369.802 788.429 370.27 788.117 370.736 784.696 C 371.202 781.273 367.937 777.851 373.536 781.584 C 379.136 785.318 383.958 789.985 381.158 784.228 C 378.359 778.473 377.581 777.073 381.468 779.095 C 385.357 781.117 389.091 782.672 384.425 777.073 C 380.846 773.028 388.003 771.94 389.246 771.473 C 392.202 771.94 373.396 755.181 364.282 748.845 C 356.354 749.961 346.22 744.441 346.451 758.469 Z" transform="matrix(0.740247, 0.672335, -0.672335, 0.740247, 619.252679, -52.049862)"/>
  </g>
  <g transform="matrix(0.169725, 0, 0, 0.169725, 203.673218, 649.9375)">
    <g id="g237">
      <g id="g239">
        <path id="path3800_1_" style="stroke: rgb(1, 1, 1); stroke-width: 4; fill: url(#pattern-0-2);" d="m458.98 152.17c-78.08-28.77-80.83 132.19-215.79 161.41-24.94 5.4 69.96 63.14 171.55 2.47 98.8-59 113.92-132.89 44.24-163.88z"/>
        <circle id="circle242" cy="202.42" cx="464.44" r="21.463" style="stroke: rgb(0, 0, 0); stroke-width: 4; fill: url(#pattern-0-3);"/>
        <path id="path3200_2_" style="fill-opacity: 0.3137; fill: url(#pattern-0-4);" d="m481.13 165.67c-0.52-0.43-1.06-0.84-1.59-1.27 6.54 33.25-16.53 78.13-70.86 121.88-72.22 58.15-150.5 43.7-169.47 30.49-1.1 12.94 84.52 53.66 175.54-0.7 86.45-51.62 108.81-114.68 66.38-150.4z"/>
      </g>
      <g id="g245">
        <path id="path3800_3_" style="stroke: rgb(1, 1, 1); stroke-width: 4; fill: url(#pattern-0-5);" d="m398.74 106.69c-82.87-7.575-43.86 148.61-166.66 211.76-22.7 11.67 83.92 42.88 166.35-42.01 80.15-82.56 75.64-157.85 0.31-169.75z"/>
        <circle id="circle248" cy="154.91" cx="424.27" r="21.463" style="stroke: rgb(0, 0, 0); stroke-width: 4; fill: url(#pattern-0-6);"/>
        <path id="path3200_3_" style="fill-opacity: 0.3137; fill: url(#pattern-0-7);" d="m423.63 114c-0.61-0.28-1.25-0.54-1.87-0.81 14.93 30.42 4.26 79.74-36.9 136.06-54.71 74.86-134.06 81.16-155.8 73.31 2.29 12.79 95.53 29.96 169.38-46.1 70.14-72.24 75.42-138.94 25.19-162.46z"/>
      </g>
      <g id="g251">
        <path id="path3800_4_" style="stroke: rgb(1, 1, 1); stroke-width: 4; fill: url(#pattern-0-8);" d="m355.4 75.532c-83.22-0.322-30.75 151.87-147.58 225.48-21.59 13.61 87.34 35.41 162.06-56.34 72.66-89.23 61.6-163.85-14.48-169.14z"/>
        <circle id="circle254" cy="114.28" cx="382.18" r="21.463" style="stroke: rgb(0, 0, 0); stroke-width: 4; fill: url(#pattern-0-9);"/>
        <path id="path3200_4_" style="fill-opacity: 0.3137; fill: url(#pattern-0-10);" d="m380.83 80.651c-0.63-0.229-1.29-0.431-1.93-0.648 17.52 29.007 11.19 79.067-24.9 138.76-47.98 79.35-126.48 92.54-148.82 86.62 3.39 12.53 97.77 21.51 164.71-60.7 63.58-78.08 63.03-144.98 10.94-164.03z"/>
      </g>
      <g id="g263">
        <g id="g265">
          <path id="path3169_1_" style="stroke: rgb(1, 1, 1); stroke-width: 4; fill: url(#pattern-0-11);" d="m55.013 138.76c81.897-14.77 56.647 144.22 184.49 196.42 23.62 9.66-79.87 50.05-169.38-27.34-87.049-75.26-89.111-150.66-15.107-169.08z"/>
          <path id="path3205_2_" style="fill-opacity: 0.3137; fill: url(#pattern-0-12);" d="m6.427 222.81c8.568 26.08 29.64 55.57 63.711 85.03 89.512 77.38 193 37.01 169.38 27.36-10.11-4.13-19.29-8.93-27.61-14.25-30.41 9.02-96.02 9.63-155.53-41.82-22.057-19.08-38.665-38.16-49.953-56.32zm105.63-49.06c5.7 12.75 11.72 26.33 18.86 40.09-6.57-14.61-12.48-28.4-18.86-40.09z"/>
        </g>
        <circle id="circle269" cy="202.42" cx="34.265" r="21.463" style="stroke: rgb(0, 0, 0); stroke-width: 4; fill: url(#pattern-0-13);"/>
      </g>
      <g id="g271">
        <g id="g273">
          <path id="path3169_3_" style="stroke: rgb(1, 1, 1); stroke-width: 4; fill: url(#pattern-0-14);" d="m97.979 106.69c82.871-7.571 43.861 148.61 166.66 211.76 22.7 11.67-83.92 42.89-166.35-42-80.156-82.56-75.639-157.86-0.311-169.76z"/>
          <path id="path3205_3_" style="fill-opacity: 0.3137; fill: url(#pattern-0-15);" d="m42.252 186.19c6.263 26.73 24.684 57.94 56.058 90.25 82.43 84.9 189.05 53.7 166.35 42.03-9.71-4.99-18.44-10.58-26.26-16.6-31.08 6.33-96.5 1.22-151.29-55.22-20.314-20.93-35.195-41.38-44.858-60.46zm109.51-39.67c4.57 13.2 9.38 27.26 15.3 41.58-5.28-15.12-9.96-29.37-15.3-41.58z"/>
        </g>
        <circle id="circle277" cy="166.86" cx="70.369" r="21.463" style="stroke: rgb(0, 0, 0); stroke-width: 4; fill: url(#pattern-0-16);"/>
      </g>
      <g id="g279">
        <g id="g281">
          <path id="path3169_4_" style="stroke: rgb(1, 1, 1); stroke-width: 4; fill: url(#pattern-0-17);" d="m141.32 75.536c83.22-0.323 30.75 151.86 147.57 225.48 21.6 13.6-87.34 35.4-162.05-56.35-72.658-89.23-61.596-163.84 14.48-169.13z"/>
          <path id="path3205_4_" style="fill-opacity: 0.3137; fill: url(#pattern-0-18);" d="m78.879 149.88c3.91 27.16 19.54 59.87 47.981 94.79 74.71 91.76 183.64 69.97 162.05 56.36-9.23-5.82-17.44-12.14-24.71-18.82-31.52 3.6-96.24-7.2-145.9-68.2-18.417-22.61-31.458-44.29-39.421-64.13zm112.55-29.98c3.4 13.55 6.96 27.97 11.61 42.76-3.93-15.53-7.36-30.13-11.61-42.76z"/>
        </g>
        <circle id="circle285" cy="126.23" cx="111.1" r="21.463" style="stroke: rgb(0, 0, 0); stroke-width: 4; fill: url(#pattern-0-19);"/>
      </g>
    </g>
  </g>
  <path d="M 230.538 708.481 C 236.829 708.481 262.075 702.947 264.842 708.481 C 268.672 716.142 254.941 733.134 259.258 740.393 C 263.247 747.1 273.993 772.31 273.617 771.506 C 269.548 762.811 247.428 753.021 244.1 756.348 C 241.372 759.076 240.894 765.138 238.515 767.517 C 238.154 767.879 233.329 763.129 232.931 762.73 C 231.915 761.715 224.853 760.027 223.357 761.933 C 219.752 766.528 216.652 776.979 216.178 778.686 C 214.79 783.681 222.06 753.657 222.56 753.157 C 224.058 751.659 245.136 719.65 232.931 719.65" style="stroke: rgb(0, 0, 0); fill: url(#pattern-0-20);"/>
</svg>
